app/assets/images/cover_close.svg

<svg xmlns="http://www.w3.org/2000/svg" xmlns:xlink="http://www.w3.org/1999/xlink" viewBox="0 0 82 59.599">
  <defs>
    <style>
      .cls-1 {
        fill: #effafa;
        opacity: 0.3;
      }

      .cls-2, .cls-3 {
        stroke: none;
      }

      .cls-3 {
        fill: #2c2f31;
      }

      .cls-4 {
        filter: url(#合体_4);
      }
    </style>
    <filter id="合体_4" x="0" y="0" width="82" height="59.599" filterUnits="userSpaceOnUse">
      <feOffset dy="2" input="SourceAlpha"/>
      <feGaussianBlur result="blur"/>
      <feFlood flood-opacity="0.8"/>
      <feComposite operator="in" in2="blur"/>
      <feComposite in="SourceGraphic"/>
    </filter>
  </defs>
  <g class="cls-4" transform="matrix(1, 0, 0, 1, 0, 0)">
    <g id="合体_4-2" data-name="合体 4" class="cls-1" transform="translate(3793)">
      <path class="cls-2" d="M -3714.999755859375 57.0986213684082 L -3789 57.0986213684082 C -3790.929931640625 57.0986213684082 -3792.5 55.52854537963867 -3792.5 53.59866714477539 L -3792.5 6.776699542999268 C -3792.5 5.949610710144043 -3791.8271484375 5.276721954345703 -3791 5.276721954345703 L -3789 5.276721954345703 L -3788.5 5.276721954345703 L -3788.5 4.776721954345703 L -3788.5 1.999977350234985 C -3788.5 1.172888517379761 -3787.8271484375 0.4999995827674866 -3787 0.4999995827674866 L -3716.999755859375 0.4999995827674866 C -3716.172607421875 0.4999995827674866 -3715.499755859375 1.172888517379761 -3715.499755859375 1.999977350234985 L -3715.499755859375 4.776721954345703 L -3715.499755859375 5.276721954345703 L -3714.999755859375 5.276721954345703 L -3712.999755859375 5.276721954345703 C -3712.172607421875 5.276721954345703 -3711.499755859375 5.949610710144043 -3711.499755859375 6.776699542999268 L -3711.499755859375 53.59866714477539 C -3711.499755859375 55.52854537963867 -3713.06982421875 57.0986213684082 -3714.999755859375 57.0986213684082 Z"/>
      <path class="cls-3" d="M -3714.999755859375 56.5986213684082 C -3713.345458984375 56.5986213684082 -3711.999755859375 55.25284576416016 -3711.999755859375 53.59866714477539 L -3711.999755859375 6.776699542999268 C -3711.999755859375 6.225310802459717 -3712.4482421875 5.776721954345703 -3712.999755859375 5.776721954345703 L -3714.999755859375 5.776721954345703 L -3715.999755859375 5.776721954345703 L -3715.999755859375 4.776721954345703 L -3715.999755859375 1.999977350234985 C -3715.999755859375 1.448588490486145 -3716.4482421875 0.9999995827674866 -3716.999755859375 0.9999995827674866 L -3787 0.9999995827674866 C -3787.551513671875 0.9999995827674866 -3788 1.448588490486145 -3788 1.999977350234985 L -3788 4.776721954345703 L -3788 5.776721954345703 L -3789 5.776721954345703 L -3791 5.776721954345703 C -3791.551513671875 5.776721954345703 -3792 6.225310802459717 -3792 6.776699542999268 L -3792 53.59866714477539 C -3792 55.25284576416016 -3790.654296875 56.5986213684082 -3789 56.5986213684082 L -3714.999755859375 56.5986213684082 M -3714.999755859375 57.5986213684082 L -3789 57.5986213684082 C -3791.20947265625 57.5986213684082 -3793 55.80806732177734 -3793 53.59866714477539 L -3793 6.776699542999268 C -3793 5.671521663665771 -3792.104248046875 4.776721954345703 -3791 4.776721954345703 L -3789 4.776721954345703 L -3789 1.999977350234985 C -3789 0.8957551121711731 -3788.104248046875 -4.26907007522459e-07 -3787 -4.26907007522459e-07 L -3716.999755859375 -4.26907007522459e-07 C -3715.8955078125 -4.26907007522459e-07 -3714.999755859375 0.8957551121711731 -3714.999755859375 1.999977350234985 L -3714.999755859375 4.776721954345703 L -3712.999755859375 4.776721954345703 C -3711.8955078125 4.776721954345703 -3710.999755859375 5.671521663665771 -3710.999755859375 6.776699542999268 L -3710.999755859375 53.59866714477539 C -3710.999755859375 55.80806732177734 -3712.790283203125 57.5986213684082 -3714.999755859375 57.5986213684082 Z"/>
    </g>
  </g>
</svg>

<?xml version="1.0" encoding="utf-8"?>
<!-- Generator: Adobe Illustrator 22.1.0, SVG Export Plug-In . SVG Version: 6.00 Build 0)  -->
<svg version="1.1" id="レイヤー_1" xmlns="http://www.w3.org/2000/svg" xmlns:xlink="http://www.w3.org/1999/xlink" x="0px"
	 y="0px" viewBox="0 0 82 59.6" style="enable-background:new 0 0 82 59.6;" xml:space="preserve">
<style type="text/css">
	.st0{opacity:0.345;}
	.st1{fill:#E7F8F8;}
	.st2{fill:#2C2F31;}
</style>
<g transform="matrix(1, 0, 0, 1, 0, 0)">
	<g id="合体_4-2" transform="translate(3793)" class="st0">
		<path class="st1" d="M-3715,57.1h-74c-1.9,0-3.5-1.6-3.5-3.5V6.8c0-0.8,0.7-1.5,1.5-1.5h2h0.5V4.8V2c0-0.8,0.7-1.5,1.5-1.5h70
			c0.8,0,1.5,0.7,1.5,1.5v2.8v0.5h0.5h2c0.8,0,1.5,0.7,1.5,1.5v46.8C-3711.5,55.5-3713.1,57.1-3715,57.1z"/>
		<path class="st2" d="M-3715,56.6c1.7,0,3-1.3,3-3V6.8c0-0.6-0.4-1-1-1h-2h-1v-1V2c0-0.6-0.4-1-1-1h-70c-0.6,0-1,0.4-1,1v2.8v1h-1
			h-2c-0.6,0-1,0.4-1,1v46.8c0,1.7,1.3,3,3,3H-3715 M-3715,59.6h-74c-2.2,0-4-1.3-4-6V6.8c0-1.1,0.9-2,2-2h2V2c0-1.1,0.9-2,2-2h70
			c1.1,0,2,0.9,2,2v2.8h2c1.1,0,2,0.9,2,2v46.8C-3711,58.7-3712.8,59.6-3715,59.6z"/>
	</g>
</g>
</svg>
